client/assets/icons/footer_mail.svg

<svg width="18" height="14" viewBox="0 0 18 14" fill="none" xmlns="http://www.w3.org/2000/svg">
<path fill-rule="evenodd" clip-rule="evenodd" d="M0.25 0.25H17.75V13.75H0.25V0.25ZM1.75 1.75V12.25H16.25V1.75H1.75Z" fill="white"></path>
    <path fill-rule="evenodd" clip-rule="evenodd" d="M0.66459 4.67082L1.33541 3.32918L9 7.16147L16.6646 3.32918L17.3354 4.67082L9 8.83852L0.66459 4.67082Z" fill="white"></path>
</svg>

<svg width="18" height="14" fill="none" xmlns="http://www.w3.org/2000/svg"><path fill-rule="evenodd" clip-rule="evenodd" d="M.25.25h17.5v13.5H.25V.25Zm1.5 1.5v10.5h14.5V1.75H1.75Z" fill="#fff"/><path fill-rule="evenodd" clip-rule="evenodd" d="m.665 4.67.67-1.34L9 7.16l7.665-3.832.67 1.342L9 8.839.665 4.67Z" fill="#fff"/></svg>
